X:1
T:III. To aske for all thy love,
T:III. To aske for all thy love,
T:CANTUS.
T:John Dowland
C:John Dowland
L:1/8
M:4/4
K:F
V:1 treble 
V:1
 G4 A3 A B2 c2 d2 de | f2 c4 c2 B4 A4 |: z2 z f2 e2 d g3 f _e2 e2 | d2 Bc de f2 e3 dcB c2 | %4
w: 1.~To aske for all thy love, and thy|whole heart t'were mad- nesse,|I doe not sue, nor can ad-|mit (fai- * * rest) from you to have * all,|
w: 2.~He that re- cei- veth all, can have|no more than see- ing.|My Love by length of e- very|houre, * * * * ga- * thers new strength, *|
w: 3.~You can- not e- very day give me|your heart for mer- it:|Yet if you will when yours doth|goe, * * * * You shall have * still *|
w: 4.~Yet if you please, Ile finde a bet-|ter way, than change them:|For so a- lone dear- est we|shall * * * * Be * one and one, *|
 B2 d4 (c3 c) B2 e2 dc | B2 c2 d6 z G ^F3 E/F/ | G8 :| %7
w: yet who giv- eth all hath no- thing|to im- part, but sad- * *|nesse.|
w: new * growth, new flower You must have|* dai- ly still be- * *|ing.|
w: one * to be- stow: For you shall|* mine when in- her- * *|it.|
w: an- * oth- ers all. Let us to|* joyne our es- trange * *|them.|

